src/ui/assets/img/transactions/t-receive-48.svg

<svg width="48" height="48" viewBox="0 0 48 48" fill="none" xmlns="http://www.w3.org/2000/svg">
    <circle r="24" transform="matrix(1 0 0 -1 24 24)" fill="#81C926" fill-opacity="0.1"/>
    <path fill-rule="evenodd" clip-rule="evenodd" d="M24 39C15.7157 39 9 32.2843 9 24C9 15.7157 15.7157 9 24 9C32.2843 9 39 15.7157 39 24C39 27.9782 37.4196 31.7936 34.6066 34.6066C31.7936 37.4196 27.9782 39 24 39ZM24 10.2C16.3785 10.2 10.2 16.3785 10.2 24C10.2 31.6215 16.3785 37.8 24 37.8C31.6215 37.8 37.8 31.6215 37.8 24C37.7915 16.382 31.618 10.2085 24 10.2ZM30.4169 25.9831C30.6483 26.2145 30.6516 26.5888 30.4242 26.8242L24.4242 32.8242C24.1899 33.0584 23.8101 33.0584 23.5758 32.8242L17.5758 26.8242C17.3484 26.5888 17.3517 26.2145 17.5831 25.9831C17.8145 25.7517 18.1888 25.7484 18.4242 25.9758L23.4 30.9516V15.6C23.4 15.2686 23.6686 15 24 15C24.3314 15 24.6 15.2686 24.6 15.6V30.9516L29.5758 25.9758C29.8112 25.7484 30.1855 25.7517 30.4169 25.9831Z" fill="#81C926"/>
</svg>

<svg fill="none" height="48" width="48" xmlns="http://www.w3.org/2000/svg"><g fill="#81c926"><circle fill-opacity=".1" r="24" transform="matrix(1 0 0 -1 24 24)"/><path clip-rule="evenodd" d="M24 39c-8.284 0-15-6.716-15-15S15.716 9 24 9s15 6.716 15 15a15 15 0 0 1-15 15zm0-28.8c-7.622 0-13.8 6.178-13.8 13.8S16.378 37.8 24 37.8 37.8 31.622 37.8 24c-.009-7.618-6.182-13.792-13.8-13.8zm6.417 15.783a.6.6 0 0 1 .007.841l-6 6a.6.6 0 0 1-.848 0l-6-6a.6.6 0 0 1 .848-.848l4.976 4.976V15.6a.6.6 0 1 1 1.2 0v15.352l4.976-4.976a.6.6 0 0 1 .84.007z" fill-rule="evenodd"/></g></svg>
